X:3305
T:Woodchopper's Hornpipe
O:ireland
M:2/4
L:1/16
Q:122
R:Reel
A:Missouri
B:Transcribed in OFTR as tune #73
Z:B. Shull, trans.; R.P. LaVaque, ABCs
K:D
FE|(DF)A(d Bd)AF|(DF)A(d BA)FD|(A,C)E(A c)(ea)(f|gf)ec (dB)AF|
(DF)A(d Bd)AF|(DF)A(d BA)FD|(A,C)E(A c)(ea)(f|gf)ec d2:|
|:f(g|af)df AdFA|(DF)Ad (fe)fa|(ge)ce (Ac)e(g|ag)ab (agf)(g|
a-fdf AdFA|(DF)Ad f2e(f|g)ece (Ac)eg|(3fgf e(c d2):|
